brandFactory_export/3.Masa/Escudo rayas _3Masa.svg

<?xml version="1.0" encoding="UTF-8"?>
<svg width="24px" height="24px" viewBox="0 0 24 24" version="1.1" xmlns="http://www.w3.org/2000/svg" xmlns:xlink="http://www.w3.org/1999/xlink">
    <title>3.Masa/Escudo rayas _3Masa</title>
    <g id="Symbols" stroke="none" stroke-width="1" fill="none" fill-rule="evenodd">
        <g id="3.Masa/Escudo-rayas-_3Masa" fill="#5CB615" fill-rule="nonzero">
            <path d="M2.9210084,3.07226891 C4.84369748,3.38151261 5.86554622,2.68571429 7.15294118,1.80840336 C8.29579832,1.03193277 9.57983193,0.171428571 11.6201681,0 L11.6201681,10.8537815 L2.17142857,10.8537815 C2.00336134,7.54285714 2.01344538,4.01008403 2.01344538,3.79159664 C2.01344538,3.56302521 2.11764706,3.34789916 2.29243697,3.20336134 C2.47058824,3.06554622 2.70252101,3.01848739 2.9210084,3.07226891 Z M22.6857143,3.79495798 C22.6857143,4.01344538 22.6957983,7.54621849 22.5310924,10.8571429 L13.0789916,10.8571429 L13.0789916,0 C15.1193277,0.171428571 16.4033613,1.03193277 17.5462185,1.80840336 C18.8369748,2.68571429 19.8655462,3.37142857 21.8084034,3.06554622 C22.2252101,3.00168067 22.6151261,3.28739496 22.6789916,3.70084034 C22.6789916,3.73445378 22.6823529,3.76470588 22.6857143,3.79495798 Z M13.0789916,23.6235294 L13.0789916,12.3495798 L22.4436975,12.3495798 C22.3697479,13.4184874 22.2756303,14.4067227 22.1478992,15.1630252 L22.1478992,15.1663866 C21.4789916,19.092437 14.9310924,22.6823529 13.0789916,23.6235294 Z M2.56470588,15.1630252 C2.43361345,14.4067227 2.3394958,13.4184874 2.26218487,12.3462185 L11.6235294,12.3462185 L11.6235294,23.6201681 C9.77142857,22.6823529 3.2302521,19.092437 2.56470588,15.1630252 Z" id="Escudo-rayas-_3Masa"></path>
        </g>
    </g>
</svg>

<svg width="24" height="24" viewBox="0 0 24 24" xmlns="http://www.w3.org/2000/svg"><path d="M2.921 3.072c1.923.31 2.945-.386 4.232-1.264C8.296 1.032 9.58.171 11.62 0v10.854H2.171c-.168-3.311-.158-6.844-.158-7.062 0-.229.105-.444.28-.589a.739.739 0 01.628-.13zm19.765.723c0 .218.01 3.751-.155 7.062H13.08V0c2.04.171 3.324 1.032 4.467 1.808 1.291.878 2.32 1.563 4.262 1.258a.764.764 0 01.871.635c0 .033.003.064.007.094zm-9.607 19.829V12.35h9.365c-.074 1.068-.168 2.057-.296 2.813v.003c-.669 3.926-7.217 7.516-9.069 8.458zM2.565 15.163c-.131-.756-.226-1.745-.303-2.817h9.362V23.62c-1.853-.938-8.394-4.528-9.06-8.457z" fill="#5CB615" fill-rule="nonzero"/></svg>
